packages/sources/icons/src/vitamix/telegram-line.svg

<svg width="16" height="16" viewBox="0 0 16 16" xmlns="http://www.w3.org/2000/svg"><path d="M8.00004 13.3333C9.41453 13.3333 10.7711 12.7714 11.7713 11.7712C12.7715 10.7711 13.3334 9.4145 13.3334 8.00001C13.3334 6.58552 12.7715 5.22897 11.7713 4.22877C10.7711 3.22858 9.41453 2.66668 8.00004 2.66668C6.58555 2.66668 5.229 3.22858 4.2288 4.22877C3.22861 5.22897 2.66671 6.58552 2.66671 8.00001C2.66671 9.4145 3.22861 10.7711 4.2288 11.7712C5.229 12.7714 6.58555 13.3333 8.00004 13.3333ZM8.00004 14.6667C4.31804 14.6667 1.33337 11.682 1.33337 8.00001C1.33337 4.31801 4.31804 1.33334 8.00004 1.33334C11.682 1.33334 14.6667 4.31801 14.6667 8.00001C14.6667 11.682 11.682 14.6667 8.00004 14.6667ZM5.92671 8.78001L4.26137 8.26068C3.90137 8.15068 3.89937 7.90268 4.34204 7.72468L10.8307 5.21801C11.2074 5.06468 11.4207 5.25868 11.2987 5.74468L10.194 10.958C10.1167 11.3293 9.89337 11.418 9.58337 11.2467L7.88271 9.98801L7.09004 10.7533C7.00871 10.832 6.94271 10.8993 6.81737 10.916C6.69271 10.9333 6.59004 10.896 6.51471 10.6893L5.93471 8.77534L5.92671 8.78068V8.78001Z"/></svg>

<svg width="16" height="16" xmlns="http://www.w3.org/2000/svg"><path d="M8 13.333A5.333 5.333 0 1 0 8 2.667a5.333 5.333 0 0 0 0 10.666Zm0 1.334A6.667 6.667 0 1 1 8 1.334a6.667 6.667 0 0 1 0 13.333ZM5.927 8.78 4.26 8.26c-.36-.11-.362-.357.081-.535l6.489-2.507c.376-.153.59.04.468.527l-1.105 5.213c-.077.371-.3.46-.61.289L7.882 9.988l-.793.765c-.081.079-.147.146-.273.163-.124.017-.227-.02-.302-.227l-.58-1.914-.008.006V8.78Z"/></svg>
